src/shared/assets/icons/grill.svg

<svg width="74" height="74" viewBox="0 0 74 74" fill="none" xmlns="http://www.w3.org/2000/svg">
<path d="M56.8403 23.1106C56.8403 30.3255 52.986 36.6157 47.2202 40.0999L49.6558 48.9797H49.6255C52.5543 49.3499 54.8362 51.8471 54.8364 54.8684C54.8364 58.1367 52.1843 60.8195 48.8853 60.8196C46.2953 60.8196 44.1367 59.1545 43.3042 56.842H26.3149L25.2358 60.8196H21.1353L26.7778 40.0999C21.012 36.6157 17.1578 30.3255 17.1577 23.1106H56.8403ZM48.9155 52.8958C47.8059 52.896 46.9118 53.7896 46.9116 54.8684C46.9116 55.9474 47.8057 56.8418 48.9155 56.842C49.9947 56.842 50.8892 55.9476 50.8892 54.8684C50.889 53.7894 50.0254 52.8958 48.9155 52.8958ZM43.5513 41.7952C41.4856 42.5043 39.2962 42.9367 36.9839 42.9368C34.6714 42.9368 32.4814 42.5352 30.4155 41.7952L27.394 52.8645H43.3042C43.7359 51.6004 44.599 50.5209 45.7397 49.8118L43.5513 41.7952ZM21.6284 27.0569C23.4167 33.9018 29.645 38.9592 37.0142 38.9592C44.3833 38.9592 50.6121 33.9019 52.3696 27.0569H21.6284ZM31.2788 19.1331H27.0864L29.0591 13.1819H33.2524L31.2788 19.1331ZM39.2036 19.1331H35.0103L37.0142 13.1819H41.1763L39.2036 19.1331ZM47.1274 19.1331H42.9653L44.938 13.1819H49.1313L47.1274 19.1331Z" fill="#DB1C41"/>
</svg>

<svg xmlns="http://www.w3.org/2000/svg" width="74" height="74" fill="none" viewBox="0 0 74 74"><path fill="#DB1C41" d="M56.84 23.11c0 7.216-3.854 13.506-9.62 16.99l2.436 8.88h-.03c2.928.37 5.21 2.867 5.21 5.888a5.955 5.955 0 0 1-5.95 5.952c-2.59 0-4.75-1.666-5.582-3.978h-16.99l-1.078 3.978h-4.1l5.642-20.72c-5.766-3.484-9.62-9.774-9.62-16.99zm-7.925 29.786c-1.11 0-2.003.894-2.003 1.972 0 1.08.894 1.974 2.004 1.974a1.987 1.987 0 0 0 1.973-1.974 1.967 1.967 0 0 0-1.974-1.972m-5.364-11.1c-2.065.708-4.255 1.14-6.567 1.14a19.4 19.4 0 0 1-6.568-1.14l-3.022 11.069h15.91a5.8 5.8 0 0 1 2.436-3.053zm-21.923-14.74c1.789 6.846 8.017 11.903 15.386 11.903 7.37 0 13.598-5.057 15.356-11.902zm9.65-7.923h-4.192l1.973-5.951h4.193zm7.926 0H35.01l2.004-5.951h4.162zm7.923 0h-4.162l1.973-5.951h4.193z"/></svg>
